images/advantages-icon-10.svg

<svg width="24" height="29" viewBox="0 0 24 29" fill="none" xmlns="http://www.w3.org/2000/svg">
<path d="M6 4.64775H5.6667V1.31445C5.6667 0.767753 5.2133 0.314453 4.6667 0.314453C4.12 0.314453 3.6667 0.767753 3.6667 1.31445V4.64775H3.3333C1.2133 4.64775 0 5.86105 0 7.98105V15.9811C0 18.1011 1.2133 19.3145 3.3333 19.3145H3.6667V27.9811C3.6667 28.5278 4.12 28.9811 4.6667 28.9811C5.2133 28.9811 5.6667 28.5278 5.6667 27.9811V19.3145H6C8.12 19.3145 9.3333 18.1011 9.3333 15.9811V7.98105C9.3333 5.86105 8.12 4.64775 6 4.64775Z" fill="white"/>
<path d="M20.667 9.98105H20.3336V1.31445C20.3336 0.767753 19.8803 0.314453 19.3336 0.314453C18.787 0.314453 18.3336 0.767753 18.3336 1.31445V9.98105H18.0003C15.8803 9.98105 14.667 11.1945 14.667 13.3145V21.3145C14.667 23.4345 15.8803 24.6478 18.0003 24.6478H18.3336V27.9811C18.3336 28.5278 18.787 28.9811 19.3336 28.9811C19.8803 28.9811 20.3336 28.5278 20.3336 27.9811V24.6478H20.667C22.787 24.6478 24.0003 23.4345 24.0003 21.3145V13.3145C24.0003 11.1945 22.787 9.98105 20.667 9.98105Z" fill="white"/>
</svg>

<svg width="24" height="29" fill="none" xmlns="http://www.w3.org/2000/svg"><path d="M6 4.648h-.333V1.314c0-.546-.454-1-1-1-.547 0-1 .454-1 1v3.334h-.334C1.213 4.648 0 5.86 0 7.98v8c0 2.12 1.213 3.333 3.333 3.333h.334v8.667c0 .547.453 1 1 1 .546 0 1-.453 1-1v-8.667H6c2.12 0 3.333-1.213 3.333-3.333v-8C9.333 5.86 8.12 4.647 6 4.647zm14.667 5.333h-.333V1.314c0-.546-.454-1-1-1-.547 0-1 .454-1 1v8.667H18c-2.12 0-3.333 1.213-3.333 3.334v8c0 2.12 1.213 3.333 3.333 3.333h.334v3.333c0 .547.453 1 1 1 .546 0 1-.453 1-1v-3.333h.333c2.12 0 3.333-1.213 3.333-3.334v-8c0-2.12-1.213-3.333-3.333-3.333z" fill="#fff"/></svg>
